public/images/linkedin_overlay.svg

<svg fill="none" height="24" viewBox="0 0 24 24" width="24" xmlns="http://www.w3.org/2000/svg" xmlns:xlink="http://www.w3.org/1999/xlink"><clipPath id="a"><path d="m0 0h24v24h-24z"/></clipPath><g clip-path="url(#a)"><path clip-rule="evenodd" d="m12 0c6.623 0 12 5.37703 12 12 0 6.623-5.377 12-12 12-6.62297 0-12-5.377-12-12 0-6.62297 5.37703-12 12-12zm-3.75173 18.744v-9.37134h-3.1155v9.37134zm11.23223 0v-5.3741c0-2.8785-1.5369-4.2176-3.5864-4.2176-1.6526 0-2.3928.9089-2.8073 1.5472v-1.32684h-3.11471c.04131.87924 0 9.37134 0 9.37134h3.11471v-5.2336c0-.2802.0201-.5602.1027-.7604.2247-.5595.7376-1.139 1.5982-1.139 1.1266 0 1.5779.8597 1.5779 2.1189v5.0141zm-12.76894-13.89009c-1.06594 0-1.76236.70078-1.76236 1.61929 0 .89916.67524 1.61925 1.72111 1.61925h.02011c1.08633 0 1.7625-.72009 1.7625-1.61925-.02015-.91851-.67612-1.61929-1.74136-1.61929z" fill="#fff" fill-rule="evenodd" opacity=".48"/></g></svg>

<svg width="24" height="24" viewBox="0 0 24 24" fill="none" xmlns="http://www.w3.org/2000/svg">
<g clip-path="url(#clip0_1073_3201)">
<path opacity="0.48" fill-rule="evenodd" clip-rule="evenodd" d="M12 0C18.623 0 24 5.37703 24 12C24 18.623 18.623 24 12 24C5.37703 24 0 18.623 0 12C0 5.37703 5.37703 0 12 0ZM8.24827 18.744V9.37266H5.13277V18.744H8.24827ZM19.4805 18.744V13.3699C19.4805 10.4914 17.9436 9.1523 15.8941 9.1523C14.2415 9.1523 13.5013 10.0612 13.0868 10.6995V9.37266H9.97209C10.0134 10.2519 9.97209 18.744 9.97209 18.744H13.0868V13.5104C13.0868 13.2302 13.1069 12.9502 13.1895 12.75C13.4142 12.1905 13.9271 11.611 14.7877 11.611C15.9143 11.611 16.3656 12.4707 16.3656 13.7299V18.744H19.4805ZM6.71156 4.85391C5.64562 4.85391 4.9492 5.55469 4.9492 6.4732C4.9492 7.37236 5.62444 8.09245 6.67031 8.09245H6.69042C7.77675 8.09245 8.45292 7.37236 8.45292 6.4732C8.43277 5.55469 7.7768 4.85391 6.71156 4.85391Z" fill="white"/>
</g>
<defs>
<clipPath id="clip0_1073_3201">
<rect width="24" height="24" fill="white"/>
</clipPath>
</defs>
</svg>
